assets/img/ods/SDG-2.svg

<svg xmlns="http://www.w3.org/2000/svg" viewBox="0 0 720 720"><defs><style>.cls-2{fill:#fff}</style></defs><path fill="#dda83a" d="M-1.08-1.08h722.16v722.16H-1.08z" id="goal_background" data-name="goal background"/><g id="ENG_text_graphics" data-name="ENG text &amp; graphics"><path class="cls-2" d="M55.12 180.9l33.49-51.51c7.31-11.39 14.62-20.91 14.62-33.66 0-8.84-3.4-13.6-10-13.6-10 0-12.41 9.18-12.41 20.4v6.29h-25.7V102c0-24.31 10.54-42 37.57-42 24.14 0 36.55 13.43 36.55 36.21 0 16.83-8.67 28.56-18 42.67L84.7 178.69h40.8v20.74H55.12zM189 61.63h21.65v6.63h-12.13V83.6h9.88v6.69h-9.88v24H189zM214.64 97.77V78c0-10.66 3.9-17 15.21-17S245 67.35 245 78v19.77c0 10.59-3.9 17.22-15.14 17.22s-15.22-6.56-15.22-17.22zm20.6 2.27V75.8c0-4.42-.71-7.74-5.39-7.74s-5.46 3.32-5.46 7.74V100c0 4.36.71 7.87 5.46 7.87s5.39-3.47 5.39-7.87zM252.53 61.63h10L270 98.09l7.74-36.46h9.68l1 52.65h-7.22l-.78-36.6-7.48 36.6h-5.78l-7.61-36.73-.71 36.73h-7.22zM295.82 61.63h22.1v6.76h-12.54v15.14h9.88v6.7h-9.88v17.48h12.67v6.57h-22.23zM337 108.1l14.11-39.84h-13.36v-6.63h23.07v4.94l-14.69 41.14h14.76v6.57H337zM366.09 61.63h22.1v6.76h-12.55v15.14h9.88v6.7h-9.88v17.48h12.68v6.57h-22.23zM393.58 61.63h12.68c10.53 0 16.51 3.38 16.51 14 0 6.31-1.56 10.73-6.5 12.74l7.34 25.94H414l-6.3-24.12h-4.55v24.12h-9.56zm12.61 22.55c5.53 0 7.54-2.4 7.54-8.06 0-5.33-1.49-7.93-7-7.93h-3.57v16zM428.62 97.77V78c0-10.66 3.9-17 15.21-17S459 67.35 459 78v19.77c0 10.59-3.9 17.22-15.14 17.22s-15.24-6.56-15.24-17.22zm20.6 2.27V75.8c0-4.42-.71-7.74-5.39-7.74s-5.46 3.32-5.46 7.74V100c0 4.36.71 7.87 5.46 7.87s5.39-3.47 5.39-7.87zM189 147.63h22.1v6.76h-12.58v15.14h9.88v6.7h-9.88v17.48h12.67v6.57H189zM239.79 147.63h10.27l10.53 52.65h-8.9l-2.08-12.16h-9.17l-2.14 12.16h-9zm8.78 34.37L245 159.91 241.42 182zM264.17 182.92v-17.68c0-11.31 3.44-18.2 15-18.2 10.79 0 14.56 5.59 14.56 15.34v2.73h-9.16v-3c0-5.07-.52-8.06-5.27-8.06-5.07 0-5.46 4.1-5.46 8.91v22c0 5.46 1 8.91 5.72 8.91s5.79-3.64 5.79-9.36v-4.94h-5.65v-6.05H294v26.72h-6.24l-.65-5.14a8.87 8.87 0 01-8.9 5.85c-10.4.05-14.04-6.95-14.04-18.03zM301 147.63h12.7c10.53 0 16.51 3.38 16.51 14 0 6.31-1.56 10.73-6.5 12.74l7.34 25.94h-9.62l-6.3-24.12h-4.55v24.12H301zm12.61 22.55c5.53 0 7.54-2.4 7.54-8.06 0-5.33-1.49-7.93-7-7.93h-3.57v16zM337.42 147.63h9.49v52.65h-9.49zM353.87 183.44v-18.78c0-10.79 3.44-17.62 15-17.62 10.79 0 14.24 6 14.24 15.15v4.42h-9.23v-4.55c0-4.42-.07-8-4.94-8s-5.4 3.77-5.4 8.58v22.82c0 5.72 1.17 8.45 5.4 8.45 4.74 0 4.94-3.71 4.94-8.39v-4.74h9.23V185c0 9.3-3.12 16-14.24 16-11.56 0-15-7.29-15-17.56zM389.1 183.25v-35.62h9.36v36.72c0 5 .58 9.49 5.46 9.49s5.52-4.48 5.52-9.49v-36.72h9.3v35.62c0 11.05-3.06 17.74-14.82 17.74s-14.82-6.69-14.82-17.74zM426 147.63h9.56v46.08h12.8v6.57H426zM455.66 154.71h-8.39v-7.08h26.2v7.08h-8.19v45.57h-9.62zM477.56 183.25v-35.62h9.36v36.72c0 5 .58 9.49 5.46 9.49s5.53-4.48 5.53-9.49v-36.72h9.29v35.62c0 11.05-3.05 17.74-14.82 17.74s-14.82-6.69-14.82-17.74zM514.41 147.63h12.68c10.53 0 16.51 3.38 16.51 14 0 6.31-1.56 10.73-6.5 12.74l7.34 25.94h-9.62l-6.3-24.12H524v24.12h-9.56zM527 170.18c5.53 0 7.54-2.4 7.54-8.06 0-5.33-1.49-7.93-7-7.93H524v16zM558.42 147.63h10.27l10.53 52.65h-8.91l-2.08-12.16h-9.16l-2.15 12.16h-9zm8.77 34.37l-3.57-22.1L560 182zM187.66 270.94l8.26-1.63c.26 6.24 1.75 10.27 6 10.27 3 0 4.35-2.08 4.35-4.94 0-4.55-2.34-7.08-5.78-10.07l-6.63-5.79c-3.77-3.25-6.11-6.89-6.11-12.74 0-8.32 5.2-13 13.58-13 9.88 0 12.68 6.63 13.2 14.3l-8.26 1.43c-.19-4.94-.91-8.64-5.13-8.64-2.86 0-4.42 2.14-4.42 4.94 0 3.57 1.49 5.52 4.29 7.93l6.56 5.78c4.3 3.71 7.87 8.32 7.87 15.28 0 7.6-5.33 12.93-13.2 12.93-9.64.01-14.19-5.59-14.58-16.05zM220.36 269.25v-35.62h9.36v36.72c0 5 .58 9.49 5.46 9.49s5.52-4.48 5.52-9.49v-36.72h9.3v35.62c0 11.05-3.06 17.74-14.82 17.74s-14.82-6.69-14.82-17.74zM255.91 270.94l8.26-1.63c.26 6.24 1.75 10.27 6 10.27 3.05 0 4.35-2.08 4.35-4.94 0-4.55-2.34-7.08-5.78-10.07l-6.63-5.79c-3.77-3.25-6.11-6.89-6.11-12.74 0-8.32 5.2-13 13.58-13 9.88 0 12.68 6.63 13.2 14.3l-8.26 1.43c-.19-4.94-.91-8.64-5.13-8.64-2.86 0-4.42 2.14-4.42 4.94 0 3.57 1.49 5.52 4.29 7.93l6.56 5.78c4.29 3.71 7.87 8.32 7.87 15.28 0 7.6-5.33 12.93-13.2 12.93-9.64.01-14.19-5.59-14.58-16.05zM294.26 240.71h-8.38v-7.08h26.19v7.08h-8.19v45.57h-9.62zM316.56 233.63h22.1v6.76h-12.55v15.14H336v6.7h-9.88v17.48h12.68v6.57h-22.24zM344.05 233.63h6.7l12.8 30v-30h7.93v52.65h-6.37l-12.87-31.46v31.46h-8.19zM384.42 240.71H376v-7.08h26.2v7.08H394v45.57h-9.62zM413.28 233.63h10.27l10.53 52.65h-8.91l-2.08-12.16h-9.16l-2.15 12.16h-9zm8.77 34.37l-3.57-22.1-3.58 22.1zm-2.34-51h9L421 230h-5.14zM434.59 233.63H443l7 37.24 6.57-37.24h8.64l-10.59 52.65h-9.43zM470.28 233.63h22.1v6.76h-12.55v15.14h9.88v6.7h-9.88v17.48h12.68v6.57h-22.23zM497.77 233.63h9.56v46.08h12.8v6.57h-22.36zM286.64 639.72v10.2a1.57 1.57 0 000 .23 2 2 0 000 .24 4.79 4.79 0 004.7 4.58H411.43a4.81 4.81 0 004.72-4.79v-11.61c67.37-22.09 117.85-76.69 128.93-143.23 0-.14 0-.27.07-.39a4 4 0 00.07-.67 4.83 4.83 0 00-4.84-4.84H159a4.83 4.83 0 00-4.85 4.84l.25 2.17c11.6 67.18 63.48 122.08 132.24 143.27M416 326.65c-1.57 2.24-38.42 55.29.82 98.19 18 19.69 16.44 37.06 11.3 48.79h25.17c5.1-17.32 3-39.05-17.44-61.38-28.91-31.61.37-74.33.81-75 3.45-4.88 1.6-11.16-4.08-14.09s-13.11-1.36-16.58 3.48M352.29 473.63h25.18c5.09-17.32 3-39-17.46-61.38-28.93-31.61.34-74.32.8-75 3.43-4.85 1.62-11.12-4.09-14.06s-13.11-1.36-16.56 3.48c-1.58 2.23-38.46 55.29.82 98.19 18 19.69 16.43 37.07 11.31 48.79M264.27 326.65c-1.59 2.24-38.44 55.29.81 98.19 18 19.7 16.45 37.07 11.32 48.79h25.18c5.09-17.31 3-39-17.47-61.38-28.93-31.61.36-74.33.82-75 3.42-4.86 1.6-11.14-4.11-14.07s-13.1-1.37-16.55 3.48"/></g></svg>

<svg width="720" height="720" viewBox="0 0 720 720" fill="none" xmlns="http://www.w3.org/2000/svg">
<g clip-path="url(#clip0_342_44)">
<path d="M-1.08008 -1.08H721.08V721.08H-1.08008V-1.08Z" fill="#BBBBBB"/>
<path d="M55.1201 180.9L88.6101 129.39C95.9201 118 103.23 108.48 103.23 95.73C103.23 86.89 99.8301 82.13 93.2301 82.13C83.2301 82.13 80.8201 91.31 80.8201 102.53V108.82H55.1201V102C55.1201 77.69 65.6601 60 92.6901 60C116.83 60 129.24 73.43 129.24 96.21C129.24 113.04 120.57 124.77 111.24 138.88L84.7001 178.69H125.5V199.43H55.1201V180.9ZM189 61.63H210.65V68.26H198.52V83.6H208.4V90.29H198.52V114.29H189V61.63ZM214.64 97.77V78C214.64 67.34 218.54 61 229.85 61C241.16 61 245 67.35 245 78V97.77C245 108.36 241.1 114.99 229.86 114.99C218.62 114.99 214.64 108.43 214.64 97.77ZM235.24 100.04V75.8C235.24 71.38 234.53 68.06 229.85 68.06C225.17 68.06 224.39 71.38 224.39 75.8V100C224.39 104.36 225.1 107.87 229.85 107.87C234.6 107.87 235.24 104.4 235.24 100V100.04ZM252.53 61.63H262.53L270 98.09L277.74 61.63H287.42L288.42 114.28H281.2L280.42 77.68L272.94 114.28H267.16L259.55 77.55L258.84 114.28H251.62L252.53 61.63ZM295.82 61.63H317.92V68.39H305.38V83.53H315.26V90.23H305.38V107.71H318.05V114.28H295.82V61.63ZM337 108.1L351.11 68.26H337.75V61.63H360.82V66.57L346.13 107.71H360.89V114.28H337V108.1ZM366.09 61.63H388.19V68.39H375.64V83.53H385.52V90.23H375.64V107.71H388.32V114.28H366.09V61.63ZM393.58 61.63H406.26C416.79 61.63 422.77 65.01 422.77 75.63C422.77 81.94 421.21 86.36 416.27 88.37L423.61 114.31H414L407.7 90.19H403.15V114.31H393.59L393.58 61.63ZM406.19 84.18C411.72 84.18 413.73 81.78 413.73 76.12C413.73 70.79 412.24 68.19 406.73 68.19H403.16V84.19L406.19 84.18ZM428.62 97.77V78C428.62 67.34 432.52 61 443.83 61C455.14 61 459 67.35 459 78V97.77C459 108.36 455.1 114.99 443.86 114.99C432.62 114.99 428.62 108.43 428.62 97.77ZM449.22 100.04V75.8C449.22 71.38 448.51 68.06 443.83 68.06C439.15 68.06 438.37 71.38 438.37 75.8V100C438.37 104.36 439.08 107.87 443.83 107.87C448.58 107.87 449.22 104.4 449.22 100V100.04ZM189 147.63H211.1V154.39H198.52V169.53H208.4V176.23H198.52V193.71H211.19V200.28H189V147.63ZM239.79 147.63H250.06L260.59 200.28H251.69L249.61 188.12H240.44L238.3 200.28H229.3L239.79 147.63ZM248.57 182L245 159.91L241.42 182H248.57ZM264.17 182.92V165.24C264.17 153.93 267.61 147.04 279.17 147.04C289.96 147.04 293.73 152.63 293.73 162.38V165.11H284.57V162.11C284.57 157.04 284.05 154.05 279.3 154.05C274.23 154.05 273.84 158.15 273.84 162.96V184.96C273.84 190.42 274.84 193.87 279.56 193.87C284.28 193.87 285.35 190.23 285.35 184.51V179.57H279.7V173.52H294V200.24H287.76L287.11 195.1C286.46 196.907 285.241 198.455 283.636 199.509C282.031 200.564 280.127 201.07 278.21 200.95C267.81 201 264.17 194 264.17 182.92ZM301 147.63H313.7C324.23 147.63 330.21 151.01 330.21 161.63C330.21 167.94 328.65 172.36 323.71 174.37L331.05 200.31H321.43L315.13 176.19H310.58V200.31H301V147.63ZM313.61 170.18C319.14 170.18 321.15 167.78 321.15 162.12C321.15 156.79 319.66 154.19 314.15 154.19H310.58V170.19L313.61 170.18ZM337.42 147.63H346.91V200.28H337.42V147.63ZM353.87 183.44V164.66C353.87 153.87 357.31 147.04 368.87 147.04C379.66 147.04 383.11 153.04 383.11 162.19V166.61H373.88V162.06C373.88 157.64 373.81 154.06 368.94 154.06C364.07 154.06 363.54 157.83 363.54 162.64V185.46C363.54 191.18 364.71 193.91 368.94 193.91C373.68 193.91 373.88 190.2 373.88 185.52V180.78H383.11V185C383.11 194.3 379.99 201 368.87 201C357.31 201 353.87 193.71 353.87 183.44ZM389.1 183.25V147.63H398.46V184.35C398.46 189.35 399.04 193.84 403.92 193.84C408.8 193.84 409.44 189.36 409.44 184.35V147.63H418.74V183.25C418.74 194.3 415.68 200.99 403.92 200.99C392.16 200.99 389.1 194.3 389.1 183.25ZM426 147.63H435.56V193.71H448.36V200.28H426V147.63ZM455.66 154.71H447.27V147.63H473.47V154.71H465.28V200.28H455.66V154.71ZM477.56 183.25V147.63H486.92V184.35C486.92 189.35 487.5 193.84 492.38 193.84C497.26 193.84 497.91 189.36 497.91 184.35V147.63H507.2V183.25C507.2 194.3 504.15 200.99 492.38 200.99C480.61 200.99 477.56 194.3 477.56 183.25ZM514.41 147.63H527.09C537.62 147.63 543.6 151.01 543.6 161.63C543.6 167.94 542.04 172.36 537.1 174.37L544.44 200.31H534.82L528.52 176.19H524V200.31H514.44L514.41 147.63ZM527 170.18C532.53 170.18 534.54 167.78 534.54 162.12C534.54 156.79 533.05 154.19 527.54 154.19H524V170.19L527 170.18ZM558.42 147.63H568.69L579.22 200.28H570.31L568.23 188.12H559.07L556.92 200.28H547.92L558.42 147.63ZM567.19 182L563.62 159.9L560 182H567.19ZM187.66 270.94L195.92 269.31C196.18 275.55 197.67 279.58 201.92 279.58C204.92 279.58 206.27 277.5 206.27 274.64C206.27 270.09 203.93 267.56 200.49 264.57L193.86 258.78C190.09 255.53 187.75 251.89 187.75 246.04C187.75 237.72 192.95 233.04 201.33 233.04C211.21 233.04 214.01 239.67 214.53 247.34L206.27 248.77C206.08 243.83 205.36 240.13 201.14 240.13C198.28 240.13 196.72 242.27 196.72 245.07C196.72 248.64 198.21 250.59 201.01 253L207.57 258.78C211.87 262.49 215.44 267.1 215.44 274.06C215.44 281.66 210.11 286.99 202.24 286.99C192.6 287 188.05 281.4 187.66 270.94ZM220.36 269.25V233.63H229.72V270.35C229.72 275.35 230.3 279.84 235.18 279.84C240.06 279.84 240.7 275.36 240.7 270.35V233.63H250V269.25C250 280.3 246.94 286.99 235.18 286.99C223.42 286.99 220.36 280.3 220.36 269.25ZM255.91 270.94L264.17 269.31C264.43 275.55 265.92 279.58 270.17 279.58C273.22 279.58 274.52 277.5 274.52 274.64C274.52 270.09 272.18 267.56 268.74 264.57L262.11 258.78C258.34 255.53 256 251.89 256 246.04C256 237.72 261.2 233.04 269.58 233.04C279.46 233.04 282.26 239.67 282.78 247.34L274.52 248.77C274.33 243.83 273.61 240.13 269.39 240.13C266.53 240.13 264.97 242.27 264.97 245.07C264.97 248.64 266.46 250.59 269.26 253L275.82 258.78C280.11 262.49 283.69 267.1 283.69 274.06C283.69 281.66 278.36 286.99 270.49 286.99C260.85 287 256.3 281.4 255.91 270.94ZM294.26 240.71H285.88V233.63H312.07V240.71H303.88V286.28H294.26V240.71ZM316.56 233.63H338.66V240.39H326.11V255.53H336V262.23H326.12V279.71H338.8V286.28H316.56V233.63ZM344.05 233.63H350.75L363.55 263.63V233.63H371.48V286.28H365.11L352.24 254.82V286.28H344.05V233.63ZM384.42 240.71H376V233.63H402.2V240.71H394V286.28H384.38L384.42 240.71ZM413.28 233.63H423.55L434.08 286.28H425.17L423.09 274.12H413.93L411.78 286.28H402.78L413.28 233.63ZM422.05 268L418.48 245.9L414.9 268H422.05ZM419.71 217H428.71L421 230H415.86L419.71 217ZM434.59 233.63H443L450 270.87L456.57 233.63H465.21L454.62 286.28H445.19L434.59 233.63ZM470.28 233.63H492.38V240.39H479.83V255.53H489.71V262.23H479.83V279.71H492.51V286.28H470.28V233.63ZM497.77 233.63H507.33V279.71H520.13V286.28H497.77V233.63ZM286.64 639.72V649.92C286.635 649.997 286.635 650.073 286.64 650.15C286.635 650.23 286.635 650.31 286.64 650.39C286.693 651.608 287.209 652.76 288.083 653.611C288.956 654.462 290.121 654.948 291.34 654.97H411.43C412.687 654.946 413.884 654.432 414.766 653.537C415.648 652.642 416.145 651.437 416.15 650.18V638.57C483.52 616.48 534 561.88 545.08 495.34C545.08 495.2 545.08 495.07 545.15 494.95C545.192 494.729 545.216 494.505 545.22 494.28C545.221 493.644 545.097 493.014 544.854 492.426C544.612 491.838 544.255 491.304 543.805 490.855C543.356 490.405 542.822 490.048 542.234 489.806C541.646 489.563 541.016 489.439 540.38 489.44H159C158.363 489.437 157.732 489.561 157.143 489.803C156.554 490.045 156.019 490.401 155.568 490.851C155.118 491.301 154.76 491.835 154.517 492.424C154.273 493.012 154.149 493.643 154.15 494.28L154.4 496.45C166 563.63 217.88 618.53 286.64 639.72ZM416 326.65C414.43 328.89 377.58 381.94 416.82 424.84C434.82 444.53 433.26 461.9 428.12 473.63H453.29C458.39 456.31 456.29 434.58 435.85 412.25C406.94 380.64 436.22 337.92 436.66 337.25C440.11 332.37 438.26 326.09 432.58 323.16C426.9 320.23 419.47 321.8 416 326.64M352.29 473.63H377.47C382.56 456.31 380.47 434.63 360.01 412.25C331.08 380.64 360.35 337.93 360.81 337.25C364.24 332.4 362.43 326.13 356.72 323.19C351.01 320.25 343.61 321.83 340.16 326.67C338.58 328.9 301.7 381.96 340.98 424.86C358.98 444.55 357.41 461.93 352.29 473.65M264.27 326.65C262.68 328.89 225.83 381.94 265.08 424.84C283.08 444.54 281.53 461.91 276.4 473.63H301.58C306.67 456.32 304.58 434.63 284.11 412.25C255.18 380.64 284.47 337.92 284.93 337.25C288.35 332.39 286.53 326.11 280.82 323.18C275.11 320.25 267.72 321.81 264.27 326.66" fill="white"/>
</g>
<defs>
<clipPath id="clip0_342_44">
<rect width="720" height="720" fill="white"/>
</clipPath>
</defs>
</svg>
